Simply-Blue-Circles/symbolic/actions/system-switch-user-symbolic.svg

<svg xmlns="http://www.w3.org/2000/svg" width="24" height="24"><path d="M12 1.14A10.86 10.86 0 0 0 1.14 12 10.86 10.86 0 0 0 12 22.86 10.86 10.86 0 0 0 22.86 12 10.86 10.86 0 0 0 12 1.14zm.02 1.82A8.97 8.97 0 0 1 21 11.93a8.97 8.97 0 0 1-8.98 8.97 8.97 8.97 0 0 1-8.97-8.97 8.97 8.97 0 0 1 8.97-8.97zM11.9 4.8a7.21 7.21 0 0 0-3.2.8l1.28 1.3a5.44 5.44 0 0 1 5.86 1.2 5.44 5.44 0 0 1 1.2 5.86l1.37 1.36a7.21 7.21 0 0 0-1.3-8.42 7.21 7.21 0 0 0-5.21-2.1zM5.65 8.58A7.21 7.21 0 0 0 6.9 17.1a7.21 7.21 0 0 0 8.52 1.24l-1.37-1.36a5.44 5.44 0 0 1-5.92-1.18 5.44 5.44 0 0 1-1.18-5.92z" fill="gray"/></svg>

<?xml version="1.0" encoding="UTF-8" standalone="no"?>
<svg
   xmlns:dc="http://purl.org/dc/elements/1.1/"
   xmlns:cc="http://creativecommons.org/ns#"
   xmlns:rdf="http://www.w3.org/1999/02/22-rdf-syntax-ns#"
   xmlns:svg="http://www.w3.org/2000/svg"
   xmlns="http://www.w3.org/2000/svg"
   xmlns:sodipodi="http://sodipodi.sourceforge.net/DTD/sodipodi-0.dtd"
   xmlns:inkscape="http://www.inkscape.org/namespaces/inkscape"
   width="24"
   height="24"
   version="1.1"
   id="svg4"
   sodipodi:docname="system-switch-user-symbolic.svg"
   inkscape:version="0.92.4 (5da689c313, 2019-01-14)">
  <metadata
     id="metadata10">
    <rdf:RDF>
      <cc:Work
         rdf:about="">
        <dc:format>image/svg+xml</dc:format>
        <dc:type
           rdf:resource="http://purl.org/dc/dcmitype/StillImage" />
        <dc:title></dc:title>
      </cc:Work>
    </rdf:RDF>
  </metadata>
  <defs
     id="defs8" />
  <sodipodi:namedview
     pagecolor="#ffffff"
     bordercolor="#666666"
     borderopacity="1"
     objecttolerance="10"
     gridtolerance="10"
     guidetolerance="10"
     inkscape:pageopacity="0"
     inkscape:pageshadow="2"
     inkscape:window-width="1085"
     inkscape:window-height="480"
     id="namedview6"
     showgrid="false"
     inkscape:zoom="9.8333333"
     inkscape:cx="1.0677966"
     inkscape:cy="12"
     inkscape:window-x="0"
     inkscape:window-y="25"
     inkscape:window-maximized="0"
     inkscape:current-layer="svg4" />
  <path
     d="M 12,1.14 A 10.86,10.86 0 0 0 1.14,12 10.86,10.86 0 0 0 12,22.86 10.86,10.86 0 0 0 22.86,12 10.86,10.86 0 0 0 12,1.14 Z m 0.02,1.82 A 8.97,8.97 0 0 1 21,11.93 8.97,8.97 0 0 1 12.02,20.9 8.97,8.97 0 0 1 3.05,11.93 8.97,8.97 0 0 1 12.02,2.96 Z M 11.9,4.8 A 7.21,7.21 0 0 0 8.7,5.6 l 1.28,1.3 a 5.44,5.44 0 0 1 5.86,1.2 5.44,5.44 0 0 1 1.2,5.86 l 1.37,1.36 A 7.21,7.21 0 0 0 17.11,6.9 7.21,7.21 0 0 0 11.9,4.8 Z M 5.65,8.58 a 7.21,7.21 0 0 0 1.25,8.52 7.21,7.21 0 0 0 8.52,1.24 L 14.05,16.98 A 5.44,5.44 0 0 1 8.13,15.8 5.44,5.44 0 0 1 6.95,9.88 Z"
     id="path2"
     inkscape:connector-curvature="0"
     style="fill:#808080" />
</svg>
